X: 43623
T: Zakynthos, The
R: jig
M: 6/8
K: Aminor
|:a2a gag|e2a a2g|ecc BcB|AFF F2F|
EAB cBA|FED cBA|BAB efe|B2d cBA:|
|:EAB cBA|FED cBA|BAB efe|B2d cBA|
EAB cBA|FED cBA|BAB efe|1 B2d cBA:|2 B2B ABc||
|:d2 d2 c2|dc2 B2A|d2 d2 Bc|B3 ABc|
d2 d2 c2|dc2 B2A|d2 d2 cd|e3 efe:|

